Origami/64x64/apps/netbeans.svg

<svg width="64" height="64" version="1.1" viewBox="0 0 64 64" xmlns="http://www.w3.org/2000/svg">
 <path d="m8.0010404 42.549913v1.999918c-1.32e-4 1.035958 0.5399179 1.993718 1.4140022 2.511697l21.171135 12.550288c0.873964 0.517578 1.95404 0.517578 2.828084 0l21.171135-12.550288c0.874085-0.517979 1.414143-1.475739 1.414003-2.511697v-1.999918c1.32e-4 1.035957-0.539918 1.993718-1.414003 2.511697l-21.171135 12.550287c-0.873964 0.517579-1.95404 0.517579-2.828084 0l-21.171135-12.599485c-0.8739643-0.599976-1.4141422-1.399943-1.4139422-2.599894z" style="opacity:.2"/>
 <path d="m32.066057 3.1515699c-0.518199-0.019999-1.029718 0.121995-1.478559 0.3877842l-21.175135 12.549087c-0.8740842 0.517979-1.4124823 1.47554-1.4123623 2.511498v25.098974c-1.32e-4 1.035958 0.5382581 1.993519 1.4123623 2.511498l21.175135 12.549287c0.873964 0.517579 1.95074 0.517579 2.824684 0l21.175135-12.549287c0.874085-0.517979 1.412483-1.47554 1.412363-2.511498v-25.098974c1.32e-4 -1.035958-0.538258-1.993519-1.412363-2.511498l-21.175135-12.549087c-0.409963-0.2429901-0.872844-0.3763846-1.346145-0.3877842z" style="fill:#e36d6d"/>
 <path d="m32.00006 59.149282c-0.48768 0-0.9744-0.131994-1.411402-0.390184l-21.177135-12.546887c-0.8740843-0.517779-1.4115224-1.47634-1.4114024-2.512298v-25.098974c-4.8e-5 -0.421383 0.088916-0.829566 0.2532297-1.200351l23.74703 13.999428z" style="fill:#f78d8d;opacity:.5"/>
 <path d="m32.00006 59.149282c0.48768 0 0.9744-0.131994 1.411402-0.390184l21.177135-12.546887c0.874085-0.517779 1.411523-1.47634 1.411403-2.512298v-25.098974c4.8e-5 -0.421383-0.08892-0.829566-0.25323-1.200351l-23.74703 13.999428z" style="fill:#e64d4d;opacity:.5"/>
 <path d="m32.066406 3.15625c-0.517979-0.0199992-1.032487 0.1209296-1.480468 0.3867188l-21.171876 12.548828c-0.8739643 0.517979-1.4123094 1.475761-1.4121094 2.511719v1c-2e-4 -1.035958 0.5381451-1.99374 1.4121094-2.511719l21.171876-12.548828c0.447981-0.2657892 0.962489-0.406718 1.480468-0.3867188 0.473981 0.0113995 0.937673 0.1437287 1.347656 0.3867188l21.171876 12.548828c0.873965 0.517979 1.414062 1.475761 1.414062 2.511719v-1c0-1.035958-0.540097-1.99374-1.414062-2.511719l-21.171876-12.548828c-0.409983-0.2429902-0.873675-0.3753193-1.347656-0.3867188z" style="fill:#ffffff;opacity:.2"/>
</svg>

<svg xmlns="http://www.w3.org/2000/svg" width="64" height="64" version="1.1" viewBox="0 0 64 64">
 <path style="opacity:0.2" d="m 8.0010404,42.549913 0,1.999918 c -1.32e-4,1.035958 0.5399179,1.993718 1.4140022,2.511697 L 30.586178,59.611816 c 0.873964,0.517578 1.95404,0.517578 2.828084,0 L 54.585397,47.061528 c 0.874085,-0.517979 1.414143,-1.475739 1.414003,-2.511697 l 0,-1.999918 c 1.32e-4,1.035957 -0.539918,1.993718 -1.414003,2.511697 L 33.414262,57.611897 c -0.873964,0.517579 -1.95404,0.517579 -2.828084,0 L 9.4150426,45.012412 C 8.5410783,44.412436 8.0009004,43.612469 8.0011004,42.412518 Z"/>
 <path style="fill:#e36d6d" d="m 32.066057,3.1515699 c -0.518199,-0.019999 -1.029718,0.121995 -1.478559,0.3877842 L 9.4123627,16.088441 c -0.8740842,0.517979 -1.4124823,1.47554 -1.4123623,2.511498 l 0,25.098974 c -1.32e-4,1.035958 0.5382581,1.993519 1.4123623,2.511498 L 30.587498,58.759698 c 0.873964,0.517579 1.95074,0.517579 2.824684,0 L 54.587317,46.210411 c 0.874085,-0.517979 1.412483,-1.47554 1.412363,-2.511498 l 0,-25.098974 c 1.32e-4,-1.035958 -0.538258,-1.993519 -1.412363,-2.511498 L 33.412182,3.5393541 C 33.002219,3.296364 32.539338,3.1629695 32.066037,3.1515699 Z"/>
 <path style="opacity:0.5;fill:#f78d8d" d="m 32.00006,59.149282 c -0.48768,0 -0.9744,-0.131994 -1.411402,-0.390184 L 9.4115228,46.212211 C 8.5374385,45.694432 8.0000004,44.735871 8.0001204,43.699913 l 0,-25.098974 c -4.8e-5,-0.421383 0.088916,-0.829566 0.2532297,-1.200351 L 32.00038,31.400016 Z"/>
 <path style="opacity:0.5;fill:#e64d4d" d="m 32.00006,59.149282 c 0.48768,0 0.9744,-0.131994 1.411402,-0.390184 L 54.588597,46.212211 C 55.462682,45.694432 56.00012,44.735871 56,43.699913 l 0,-25.098974 c 4.8e-5,-0.421383 -0.08892,-0.829566 -0.25323,-1.200351 L 31.99974,31.400016 Z"/>
 <path style="opacity:0.2;fill:#ffffff" d="M 32.066406 3.15625 C 31.548427 3.1362508 31.033919 3.2771796 30.585938 3.5429688 L 9.4140625 16.091797 C 8.5400982 16.609776 8.0017531 17.567558 8.0019531 18.603516 L 8.0019531 19.603516 C 8.0017531 18.567558 8.5400982 17.609776 9.4140625 17.091797 L 30.585938 4.5429688 C 31.033919 4.2771796 31.548427 4.1362508 32.066406 4.15625 C 32.540387 4.1676495 33.004079 4.2999787 33.414062 4.5429688 L 54.585938 17.091797 C 55.459903 17.609776 56 18.567558 56 19.603516 L 56 18.603516 C 56 17.567558 55.459903 16.609776 54.585938 16.091797 L 33.414062 3.5429688 C 33.004079 3.2999786 32.540387 3.1676495 32.066406 3.15625 z"/>
</svg>
